X: 5693
T: C'red Ta Shoh Ta Jannoo Shiu
R: jig
M: 6/8
K: Adorian
A2A G2B|c2c B3|c2A e2c|B3 A3|
A2A B2B|c2c B3|c2A e2c|B3 A3|
e2e f2e|d2d e3|A2A B2A|G2F E3|
A2A GAB|c2c B3|cBA edc|B3 A3||

